assets/icons/compare.svg

<svg width="30" height="30" viewBox="0 0 30 30" fill="none" xmlns="http://www.w3.org/2000/svg">
<path fill-rule="evenodd" clip-rule="evenodd" d="M15 3C15.51 3 15.923 3.413 15.923 3.923V4.846H17.769C18.0138 4.846 18.2485 4.94324 18.4216 5.11634C18.5947 5.28944 18.692 5.52421 18.692 5.769C18.692 6.01379 18.5947 6.24856 18.4216 6.42166C18.2485 6.59476 18.0138 6.692 17.769 6.692H15.923V23.308H17.769C18.0138 23.308 18.2485 23.4052 18.4216 23.5783C18.5947 23.7514 18.692 23.9862 18.692 24.231C18.692 24.4758 18.5947 24.7106 18.4216 24.8837C18.2485 25.0568 18.0138 25.154 17.769 25.154H15.923V26.077C15.923 26.3218 15.8257 26.5566 15.6526 26.7297C15.4795 26.9028 15.2448 27 15 27C14.7552 27 14.5204 26.9028 14.3473 26.7297C14.1742 26.5566 14.077 26.3218 14.077 26.077V25.154H8.53797C7.34874 25.1538 6.20548 24.6946 5.34659 23.872C4.48771 23.0495 3.97951 21.9271 3.92797 20.739L3.92297 20.539V9.461C3.92313 8.27167 4.38235 7.12829 5.20488 6.26925C6.02741 5.4102 7.14977 4.90179 8.33797 4.85L8.53797 4.846H14.077V3.923C14.077 3.413 14.49 3 15 3ZM25.153 19.615C25.663 19.615 26.076 20.029 26.076 20.539C26.076 21.1451 25.9566 21.7453 25.7246 22.3053C25.4926 22.8653 25.1526 23.3741 24.7239 23.8027C24.2953 24.2312 23.7864 24.5711 23.2264 24.803C22.6663 25.0349 22.0661 25.1541 21.46 25.154C21.2241 25.1545 20.997 25.0647 20.8253 24.903C20.6536 24.7413 20.5503 24.52 20.5366 24.2846C20.5229 24.0491 20.5999 23.8174 20.7517 23.6369C20.9035 23.4564 21.1187 23.3408 21.353 23.314L21.46 23.308C22.1946 23.308 22.8992 23.0162 23.4187 22.4967C23.9381 21.9772 24.23 21.2726 24.23 20.538C24.23 20.028 24.643 19.615 25.153 19.615ZM8.53797 6.692H14.077V23.308H8.53797L8.37597 23.303C7.6708 23.2614 7.00815 22.952 6.52355 22.4381C6.03895 21.9241 5.76902 21.2444 5.76897 20.538V9.462L5.77397 9.299C5.81553 8.594 6.1248 7.93149 6.63855 7.44692C7.15231 6.96235 7.83175 6.69231 8.53797 6.692ZM25.154 12.231C25.664 12.231 26.077 12.644 26.077 13.154V16.846C26.077 17.0908 25.9797 17.3256 25.8066 17.4987C25.6335 17.6718 25.3988 17.769 25.154 17.769C24.9092 17.769 24.6744 17.6718 24.5013 17.4987C24.3282 17.3256 24.231 17.0908 24.231 16.846V13.154C24.231 12.644 24.644 12.231 25.154 12.231ZM26.077 9.461C26.077 8.85487 25.9576 8.25467 25.7256 7.69468C25.4936 7.1347 25.1536 6.6259 24.7249 6.19735C24.2963 5.76879 23.7874 5.42888 23.2274 5.19701C22.6673 4.96514 22.0671 4.84587 21.461 4.846C21.2162 4.846 20.9814 4.94324 20.8083 5.11634C20.6352 5.28944 20.538 5.52421 20.538 5.769C20.538 6.01379 20.6352 6.24856 20.8083 6.42166C20.9814 6.59476 21.2162 6.692 21.461 6.692C22.1956 6.692 22.9002 6.98384 23.4197 7.50331C23.9391 8.02279 24.231 8.72735 24.231 9.462C24.231 9.70679 24.3282 9.94156 24.5013 10.1147C24.6744 10.2878 24.9092 10.385 25.154 10.385C25.3988 10.385 25.6335 10.2878 25.8066 10.1147C25.9797 9.94156 26.077 9.70679 26.077 9.462V9.461Z" fill="#485FC7"/>
</svg>

<svg width="30" height="30" fill="none" xmlns="http://www.w3.org/2000/svg"><path fill-rule="evenodd" clip-rule="evenodd" d="M15 3c.51 0 .923.413.923.923v.923h1.846a.923.923 0 1 1 0 1.846h-1.846v16.616h1.846a.923.923 0 1 1 0 1.846h-1.846v.923a.923.923 0 0 1-1.846 0v-.923H8.538a4.615 4.615 0 0 1-4.61-4.415l-.005-.2V9.461A4.616 4.616 0 0 1 8.338 4.85l.2-.004h5.539v-.923c0-.51.413-.923.923-.923Zm10.153 16.615c.51 0 .923.414.923.924a4.615 4.615 0 0 1-4.616 4.615.923.923 0 0 1-.107-1.84l.107-.006a2.77 2.77 0 0 0 2.77-2.77c0-.51.413-.923.923-.923ZM8.538 6.692h5.539v16.616H8.538l-.162-.005a2.77 2.77 0 0 1-2.607-2.765V9.462l.005-.163a2.77 2.77 0 0 1 2.764-2.607Zm16.616 5.539c.51 0 .923.413.923.923v3.692a.923.923 0 0 1-1.846 0v-3.692c0-.51.413-.923.923-.923Zm.923-2.77a4.615 4.615 0 0 0-4.616-4.615.923.923 0 1 0 0 1.846 2.77 2.77 0 0 1 2.77 2.77.923.923 0 1 0 1.846 0v-.001Z" fill="#485FC7"/></svg>
